X:37
T:Forbes Morrison.
T: From Logie Collection
C: J. Scott Skinner
R: strathspey
M:C
L:1/8
Z: Jason R. Fruit <jason@gmail.com>
K:A
d | c<A {F}E>D C>EA,>C | {C}[DD]2 (B>A) (3Gfe (3dcB | c<A {F}E>D C>EA,>C | (3DFB (3GEG {G}([AA]2[AE]) :| 
g | a>f g>e f<de>c | d>Bc>A (3Bcd (3efg | a>fg>e f<de>A | (3Gfe (3dcB {G}([AA]2[AE])>g |
"^Solo or Dancing."(3afa (3geg (3fdf (3ece & a>f g>e f>d e>c | (3dBd (3cAc (3!<(!Bcd (3!<)!efg & d>B c>A x4 | (3"_Springing Bow.".a.g.a (3.e.f.g (3.a.e.d (3.c.B.A | (3.G.f.e (3.d.c.B {G}([AA]2[EA] & (3GFE (3DCB, (A,2 A,) |]

